X:1
T:Cape Verde, CMD
T:Cape Verde, CMD
T:Elizabeth G. H. Atwood, 1899
T:Public Domain Courtesy of the Cyber Hymnal™
C:Elizabeth G. H. Atwood, 1899
Z:Public Domain
Z:Courtesy of the Cyber Hymnal™
%%score 1 ( 2 3 )
L:1/8
Q:1/4=87
M:2/4
K:F
V:1 treble 
V:2 bass 
V:3 bass 
V:1
 C | AA AA x3 | cF FF x3 | GB EG x3 | F3 C x | AA AA x3 | cF FF x3 | GB EG x3 | F3 F | dd dd x3 | %10
 cA AA x3 | cG GB x3 | A3 F x3 | dd dd x3 | cA AA x3 | cG GA x3 | F3 |] %17
V:2
 z | F,4 [A,C][A,C][A,C] | F,4 [A,C][A,C][A,C] | C,4 [G,B,][G,B,][G,B,] | F,2 ([A,C][A,C]) z | %5
 F,4 [A,C][A,C][A,C] | F,4 [A,C][A,C][A,C] | C,4 [G,B,][G,B,][G,B,] | ([F,A,][F,A,] [F,A,]) z | %9
 F,4 [B,D][B,D][B,D] | F,4 [A,C][A,C][A,C] | E,4 [B,C][B,C][B,C] | F,4 ([A,C][A,C])[A,C] | %13
 F,4 [B,D][B,D][B,D] | F,4 [A,C][A,C][A,C] | E,4 [E,B,][E,B,][E,B,] | ([F,A,]2 F,,) |] %17
V:3
 x | F, x6 | F, x6 | C, x6 | F, x4 | F, x6 | F, x6 | C, x6 | x4 | F, x6 | F, x6 | E, x6 | F, x6 | %13
 F, x6 | F, x6 | E, x6 | x3 |] %17

